!!!OTL: Da ta qing
!!!ARE: Asia, China,ÿAnhui, Fuyang
!! III, 593
!!!SCT: C1617
!!!YEM: Copyright 1995, estate of Helmut Schaffrath.
**kern
*ICvox
*Ivox
*M2/4
*k[b-e-a-]
*E-:
{8g
8f
8e-
16c
16e-
=1
4.f
8b-
=2
8g
8f
8e-
16c
16e-
=3
2f}
=4
{8b-
8g
8b-
8ee-
=5
8cc
8b-
8b-
16cc
16b-
=6
8g
8f
8e-
16c
16e-
=7
2f}
=8
{8.b-
16cc
8g
8f
=9
8e-
16c
16e-
4f}
=10
{8.b-
16cc
8g
8f
=11
8e-
16c
16e-
4f}
=12
{8g
8e-
4f}
=13
{8g
8e-
4f}
=14
{8g
8e-
4f}
=15
{8e-
8g
4f}
=16
{8e-
8g
4f}
=17
{8g
8e-
4f}
=18
{8g
8e-
4f}
=19
{8e-
16f
16g
4f}
=20
{8.b-
16cc
8g
8f
=21
8e-
8g
8f
16f
16f
=22
4B-
8e-
8e-
=23
4f
8e-
8c
=24
8B-
8B-
16A-
16B-
8c
=25
2B-}
=26
{8.f
16g
8b-
8b-
=27
8b-
8g
8f
8e-
=28
4B-
8e-
8e-
=29
4f
8e-
8c
=30
8B-
8B-
16A-
16B-
8c
=31
2B-}
==
!!!AGN: Xiaodiao. Chunyou
!!!AMT: simple duple
!!!AIN: vox
!!!EED: Helmut Schaffrath
!!!EEV: 1.0
*-
